!!!!SEGMENT: pl-wtm--r-2039--001_smietanski-emil-wladyslaw--doppelfuge.krn
!!!cenid: 18xx:2021
!!!COM: Śmietański, Emil Władysław
!!!COM-rismid: pe50041781
!!!CDT: 1845-1886
!!!CNT: Polish
!!!OTL: Doppelfuge
!!!PDT:
!!!AGN: Secular; Fugue
!!!SMS-siglum: PL-Wtm
!!!SMS-shelfmark: R 2039
!!!SMS-shelfwork: 001 W
!!!SMS-variant:
!!!SMS-altvar:
!!!NIFC-rismid: 1001111526
!!!URL-scan: http://repozytorium.nifc.pl/skany/pl-wtm-nut--r2039-i-ii-iii
!!!ONB-nifc: UWAGA: skan 0002-0003
**kern	**kern
*part2	*part1
*staff2	*staff1
*Ipiano	*Ipiano
*I"Piano	*I"Piano
*I'P-no	*I'P-no
*clefF4	*clefG2
*k[b-]	*k[b-]
*d:	*d:
*M2/2	*M2/2
*met(c|)	*met(c|)
=1	=1
*	*^
1r	1r	1d\
=2	=2	=2
*^	*	*
8r	1r	1r	2e\
8A/L	.	.	.
8Bn/	.	.	.
8c#X/J	.	.	.
8d/L	.	.	4f\
8e-X/	.	.	.
8d/	.	.	4f#X\
8cn/J	.	.	.
=3	=3	=3	=3
8B-/L	1r	1r	4g\
16c/L	.	.	.
16B-/J	.	.	.
8A/	.	.	4fn\
[8d/J	.	.	.
8d/L]	.	.	4e\
16c#X/L	.	.	.
16Bn/JJ	.	.	.
4c#/	.	.	8a\L
.	.	.	8g\J
=4	=4	=4	=4
*	*	*	*2\right
8d/L	1r	1a/	2f\
8D/	.	.	.
8d/	.	.	.
16e/L	.	.	.
16d/JJ	.	.	.
8c/L	.	.	4e\
8Bn/	.	.	.
8c/	.	.	4r
8A/J	.	.	.
=5	=5	=5	=5
4.G#X/	1r	2bn/	8r
.	.	.	8e\L
.	.	.	8f#X\
8E/	.	.	8g#X\J
8A/L	.	4cc/	8a\L
8Gn/	.	.	8b-X\
8F/	.	4cc#X/	8a\
8E/J	.	.	8gn\J
=6	=6	=6	=6
4D/	1r	4dd/	8fn\L
.	.	.	16g\L
.	.	.	16f\J
4A/	.	4ccn/	8e\
.	.	.	[8a\J
4d/	.	4bn/	8a\L]
.	.	.	16g#X\L
.	.	.	16f#X\JJ
8c/L	.	8ee/L	4g#\
8Bn/J	.	8dd/J	.
!!LO:LB:g=original
=7	=7	=7	=7
4A/	1r	4cc#X/	8a\L
.	.	.	8e\
4F/	.	[4dd/	8a\
.	.	.	16b-X\L
.	.	.	16a\JJ
4E/	.	8dd/L]	4g\
.	.	16ee/L	.
.	.	16dd/JJ	.
8A/L	.	4cc#m/	8f\L
8G/J	.	.	8e\J
=8	=8	=8	=8
4F/	1D\	4dd/	8d\L
.	.	.	8A\
4F#X/	.	4r	8d\
.	.	.	8c\J
4G/	.	2r	8B-\L
.	.	.	16c\L
.	.	.	16B-\J
4Fn/	.	.	8A\
.	.	.	[8d\J
=9	=9	=9	=9
*	*2\right	*	*
2G/	2E\	8r	8d\L]
.	.	8a/L	8c#X\
.	.	8bn/	8d\
.	.	8cc#X/J	8e\J
4F/	4F\	8dd/L	4A\
.	.	8ee-X/	.
8d/L	4F#X\	8dd/	4a\
8e-X/J	.	8ccn/J	.
=10	=10	=10	=10
2d/	4G\	8b-/L	4g\
.	.	16cc/L	.
.	.	16b-/J	.
.	4Fn\	8a/	4a\
.	.	[8dd/J	.
2r	4E\	8dd/L]	4g\
.	.	16cc#X/L	.
.	.	16bn/JJ	.
.	8A\L	4cc#/	8f\L
.	8G\J	.	8e\J
=11	=11	=11	=11
1A/	8F\L	8dd/L	8d\L
.	8E\J	8ee/	8c#X\
.	8D\	8ff/	8d\
.	8r	16gg/L	[8dd\J
.	.	16ff/JJ	.
.	2r	[2ee/	8dd\L]
.	.	.	16cc\L
.	.	.	16bn\J
.	.	.	8cc\
.	.	.	8a\J
=12	=12	=12	=12
2Bn/	8r	4ee/]	4g#X\
.	8E\L	.	.
.	8F#X\	8dd#X/L	8a\L
.	8G#X\J	8ee/J	8bn\J
4c/	8A\L	4.ff/	[2a\
.	8B-X\	.	.
4c#X/	8A\	.	.
.	8Gn\J	8ee/	.
!!LO:LB:g=original
=13	=13	=13	=13
4d/	8F\L	4dd/	8a\L]
.	16G\L	.	8bn\J
.	16F\J	.	.
4c/	8E\	4ee/	4cc\
.	[8A\J	.	.
4Bn/	8A\L]	4dd/	2r
.	16G#X\L	.	.
.	16F#X\JJ	.	.
8e/L	4G#\	8cc/L	.
8d/J	.	8b/J	.
=14	=14	=14	=14
4c#X/	8A\L	4.a/	1r
.	8E\	.	.
4d/	8F\	.	.
.	8G\J	8b-X/	.
2c#/	8A\L	8a/L	.
.	8B-X\	8g/	.
.	8A\	8f/	.
.	8G\J	8e/J	.
=15	=15	=15	=15
4d/	8F\L	4a/	1d\
.	8F#X\	.	.
4r	8G\	8b-/L	.
.	16A\L	16cc/L	.
.	16G\JJ	16b-/JJ	.
2r	8Fn\L	4.a/	.
.	8E\J	.	.
.	4F\	.	.
.	.	8dd/	.
=16	=16	=16	=16
8r	1AA\	4cc#X/	2e\
8A/L	.	.	.
8Bn/	.	8dd/L	.
8c#X/J	.	8ee/J	.
8d/L	.	4a/	4f\
8e-X/	.	.	.
8d/	.	[4dd/	4f#X\
8cn/J	.	.	.
=17	=17	=17	=17
8B-/L	4GG\	4dd/]	4g\
16c/L	.	.	.
16B-/J	.	.	.
8A/	4D\	4r	4fn\
[8d/J	.	.	.
8d/L]	2AA\	2r	4e\
16c#X/L	.	.	.
16Bn/JJ	.	.	.
4c#/	.	.	8a\L
.	.	.	8g\J
!!LO:LB:g=original
=18	=18	=18	=18
8d/L	4D\	1r	4f\
16e-X/L	.	.	.
16d/JJ	.	.	.
[4c/	8E-X\L	.	4e-X\
.	8F\J	.	.
8c/L]	4G\	.	4d\
16B-/L	.	.	.
16A/JJ	.	.	.
8B-/L	4GG\	.	8g\L
8Bn/J	.	.	8f\J
=19	=19	=19	=19
8c/L	4C\	1r	4e-X\
16d/L	.	.	.
16c/JJ	.	.	.
[4B-/	8D\L	.	4d\
.	8En\J	.	.
8B-/L]	4F\	.	4c\
16A/L	.	.	.
16G/JJ	.	.	.
4A/	4FF\	.	8f\L
.	.	.	8e-\J
=20	=20	=20	=20
8B-/L	4BB-\	1ff/	8d\
8d/	.	.	4b-\
8.c/	[4F\	.	.
.	.	.	16a\LL
16B-/Jk	.	.	16g\JJ
4c/	8F\L]	.	4a\
.	8E-X\J	.	.
8d/L	4D\	.	8b-\L
8c/J	.	.	8a\J
=21	=21	=21	=21
8B-/L	2E-X\	2ee-X/	8g\L
8c/J	.	.	8a\
[4B-/	.	.	8g\
.	.	.	8g-X\J
8B-/L]	2BB-\	4dd/	[4f\
8F/J	.	.	.
4B-/	.	4cc#X/	8f\L]
.	.	.	8en\J
=22	=22	=22	=22
4A/	8F\L	4cc/	8f\L
.	8E-X\J	.	8g-X\J
[4B-/	8D\L	4dd/	8f\
.	8B-\J	.	8r
8B-/L]	2G\	4ee-X/	2r
16c/L	.	.	.
16B-/JJ	.	.	.
4e-X/	.	8b-/L	.
.	.	8cc/J	.
!!LO:LB:g=original
=23	=23	=23	=23
4d/	2F\	8dd/L	1a\
.	.	8a/	.
2A/	.	8dd/	.
.	.	8cc#X/J	.
.	2F#X\	8dd/L	.
.	.	8ee-X/	.
4d/	.	8dd/	.
.	.	8ccn/J	.
=24	=24	=24	=24
2G/	2G\	8b-/L	2b-\
.	.	16cc/L	.
.	.	16dd/J	.
.	.	8ee-X/	.
.	.	8een/J	.
2A/	2r	8ff/L	4cc\
.	.	8gg/	.
.	.	8aa/	4cc#X\
.	.	8gg/J	.
=25	=25	=25	=25
8B-/L	8r	4ff/	4dd\
8F/	8D\L	.	.
8G/	8E-X\	4ee-X/	4ccn\
8A/J	8F\J	.	.
4B-/	8G\L	4dd/	4.b-\
.	8A\	.	.
4r	8G\	8ee-/L	.
.	8F\J	8dd/J	8a\
*v	*v	*	*
=26	=26	=26
8E-X\L	4cc/	4g\
16F\L	.	.
16E-\J	.	.
8D\	4b-/	8f\L
[8G\J	.	16e-X\L
.	.	16d\JJ
8G\L]	4a/	8c\L
16F#X\L	.	8c#X\
16En\JJ	.	.
4F#\	8b-/L	8d\
.	8a/J	8cn\J
=27	=27	=27
*^	*	*
1G/	8G\L	8g/L	4.B-\
.	8F\	8d/	.
.	8E-X\	8g/	.
.	8D\J	8f/J	8Bn\
.	4C\	8e-X/L	4c\
.	.	16f/L	.
.	.	16e-/J	.
.	8BB-\L	8d/	[4d\
.	8G\J	8b-/J	.
!!LO:LB:g=original
=28	=28	=28	=28
2A/	2F#X\	4a/	8d\L]
.	.	.	8c\
.	.	4r	8d\
.	.	.	8e-X\J
4B-/	8G\L	[2g/	2d\
.	8GG\	.	.
4Bn/	8G\	.	.
.	8Fn\J	.	.
=29	=29	=29	=29
4c/	8E-X\L	2g/]	4c\
.	16F\L	.	.
.	16E-\JJ	.	.
4B-/	4D\	.	8d\L
.	.	.	16c\L
.	.	.	16d\JJ
8A/L	4C\	2a/	4e-X\
8G/J	.	.	.
4F#X/	[4D\	.	8d\L
.	.	.	8a\J
=30	=30	=30	=30
4.G/	8D\L]	4b-/	[2g\
.	8E-X\J	.	.
.	4D\	4bn/	.
8F/	.	.	.
4.E-X/	4.C\	4cc/	8g\L]
.	.	.	8a-X\J
.	.	4b-X/	[4g\
8En/	8C#X\	.	.
=31	=31	=31	=31
[2D/	8D\L	4a/	4g\]
.	8C\	.	.
.	8BB-\	8dd/L	4f#X\
.	8AA\J	8cc/J	.
4D/]	2GG\	[2b-/	8g\L
.	.	.	8fn\
8G/L	.	.	8e-X\
8F/J	.	.	8d\J
=32	=32	=32	=32
[2E-X/	4.C\	8b-/L]	4c\
.	.	8b-/	.
.	.	8a/	4r
.	8BB-\	8g/J	.
8E-/L]	2AA\	2f#X/	2r
8E-/	.	.	.
8D/	.	.	.
8C/J	.	.	.
=33	=33	=33	=33
4BB-/	4BB-\	4g/	8r
.	.	.	8d\L
4C/	4AA\	4a/	8en\
.	.	.	8f#X\J
4D/	2GG\	4b-/	8g\L
.	.	.	8a-X\
8G/L	.	4bn/	8g\
8A-X/J	.	.	8fn\J
!!LO:LB:g=original
=34	=34	=34	=34
2G/	4C\	4cc/	8e-X\L
.	.	.	16f\L
.	.	.	16e-\J
.	4G\	4b-/	8d\
.	.	.	[8g\J
4c/	4D\	4a/	8g\L]
.	.	.	16f#X\L
.	.	.	16en\JJ
8B-/L	4r	8dd/L	4f#\
8A/J	.	8cc/J	.
=35	=35	=35	=35
4G/	8r	2b-/	8g\L
.	8C\L	.	8en\
8F/L	8D\	.	8d\
8G/J	8En\J	.	8d-X\J
4.A/	8F\L	2a/	4.c\
.	8G\	.	.
.	8F\	.	.
8G/	8E\J	.	8c#X\
=36	=36	=36	=36
4F/	8D\L	4.b-/	4d\
.	16E\L	.	.
.	16D\J	.	.
8G/L	8C\	.	8e\L
8F/J	[>8F\J	8a/	8f\J
4B-/	8F\L]	4g/	4d\
.	16E\L	.	.
.	16D\JJ	.	.
4r	4E\	8a/L	8c\L
.	.	8g/J	8B-\J
=37	=37	=37	=37
8r	4F\	8f/L	4A\
8A/L	.	8ff/	.
8B-/	8G\L	8ee/	4r
8c/J	8A\J	8ee-X/J	.
8d/L	2F#X\	8dd/L	2r
8e-X/	.	8cc/	.
8d/	.	8b-/	.
8c/J	.	8a/J	.
=38	=38	=38	=38
8B-/L	8G\L	4g/	8r
16c/L	8C\	.	8e\L
16B-/J	.	.	.
8A/	8.D\	4r	8f\
[8d/J	.	.	8f#X\J
.	16C\Jk	.	.
8d/L]	8BB-\L	2r	8g\L
8c#X/J	8AA\	.	8a\
4d/	8BB-\	.	8g\
.	8BBn\J	.	8f#\J
!!LO:LB:g=original
=39	=39	=39	=39
4G/	8C\L	8r	8e\L
.	8C#X\J	8a/L	16f\L
.	.	.	16e\J
4F/	4D\	8b-/	8d\
.	.	8bn/J	[8g\J
8E/L	4Cn\	8cc/L	8g\L]
8B-/	.	8dd/	16f\L
.	.	.	16e\JJ
8A/	16F\LL	8cc/	[4f\
.	16E-X\	.	.
8B-/J	16D\	8b-X/J	.
.	16D-X\JJ	.	.
=40	=40	=40	=40
4c/	2C\	8a/L	4f\]
.	.	16b-/L	.
.	.	16a/J	.
4B-/	.	8g/	4e\
.	.	[8cc/J	.
8A/L	4.D\	8cc/L]	4f#X\
8d/J	.	16b-/L	.
.	.	16a/JJ	.
4B-/	.	[4b-/	8g\L
.	8D-X\	.	8fn\J
=41	=41	=41	=41
8c/L	4C\	8b-/L]	8e\L
[<8F/	.	8a/	16f\L
.	.	.	16e-X\J
8F/]	4BB-\	8dd/	8d\
8d/J	.	8b-/J	[8f\J
8c/L	2C\	4g/	8f\L]
8B-/	.	.	16en\L
.	.	.	16d\JJ
8A/	.	[4cc/	4e\
8G/J	.	.	.
=42	=42	=42	=42
8A/L	8F\L	4cc/]	8f\L
8G/	8E-X\	.	8c\
8F/	8D\	4b-X/	8d\
8G/J	8C\J	.	8e\J
2A/	[2F\	[2a/	8f\L
.	.	.	8g\
.	.	.	8f\
.	.	.	8e\J
=43	=43	=43	=43
1B-/	4F\]	8a/L]	2d\
.	.	8a/	.
.	8E\L	8g/	.
.	8F\J	8f/J	.
.	4G\	8e/	8e\L
.	.	8r	8f\
.	4GG\	4r	8e\
.	.	.	8d\J
!!LO:PB:g=original
=44	=44	=44	=44
8A/L	[1AA\	1e/	1c#X\
8G/	.	.	.
8A/	.	.	.
8B-/J	.	.	.
8A/L	.	.	.
8E/	.	.	.
8A/	.	.	.
8G/J	.	.	.
=45	=45	=45	=45
2F/	1AA\_	2f/	8d\L
.	.	.	8c#X\
.	.	.	8d\
.	.	.	8A\J
8E/L	.	4g/	2B-\
8F/	.	.	.
8E/	.	4g#X/	.
8D/J	.	.	.
=46	=46	=46	=46
4C#X/	1AA\_	4a/	8r
.	.	.	8A\L
8D/L	.	4gn/	8Bn\
8E/J	.	.	8c#X\J
[2D/	.	4f/	8d\L
.	.	.	8e-X\
.	.	4f#X/	8d\
.	.	.	8cn\J
=47	=47	=47	=47
2D/]	1AA\_	4g/	8B-\L
.	.	.	16c\L
.	.	.	16B-\J
.	.	4fn/	8A\
.	.	.	[8d\J
4G/	.	2e/	8d\L]
.	.	.	16c#X\L
.	.	.	16Bn\JJ
8A/L	.	.	4c#\
8G/J	.	.	.
=48	=48	=48	=48
8F/L	1AA\_	8d/L	4d\
16G/L	.	16e/L	.
16F/J	.	16f/JJ	.
8E/	.	4g/	4c#X\
[8A/J	.	.	.
8A/L]	.	8f/	4d\
16G/L	.	4b-/	.
16F/JJ	.	.	.
4G/	.	.	[4e\
.	.	16cc/LL	.
.	.	16b-/JJ	.
!!LO:LB:g=original
=49	=49	=49	=49
8C#X/L	1AA\_	4a/	8e\L]
8D/J	.	.	16f\L
.	.	.	16e\J
4B-/	.	8g/L	8d\
.	.	16ee/L	[8g\J
.	.	16dd/JJ	.
2A/	.	4cc#X/	8g\L]
.	.	.	16f\L
.	.	.	16e\J
.	.	8dd/L	8f\
.	.	8ccn/J	8f#X\J
=50	=50	=50	=50
8G/L	1AA\]	8b-/L	4.g\
8d/	.	16cc/L	.
.	.	16b-/J	.
8c#X/	.	8a/	.
8d/J	.	[8dd/J	8f\
4A/	.	8dd/L]	4e\
.	.	16cc#X/L	.
.	.	16bn/JJ	.
4r	.	4cc#/	8f\L
.	.	.	8e\J
=51	=51	=51	=51
1D/	8FF\L	1dd/	4a\
.	8FF#X\	.	.
.	8GG\	.	8b-\L
.	8AA\J	.	8a\J
.	2BB-\	.	8g\L
.	.	.	8f#X\
.	.	.	8g\
.	.	.	8g#X\J
=52	=52	=52	=52
2E/	8AA\L	2cc#X/	8a\L
.	8BB-\	.	8gn\
.	8AA\	.	8a\
.	8GG\J	.	8b-\J
4F/	8FF\	[2dd/	2a\
.	4D\	.	.
4F#X/	.	.	.
.	8C\	.	.
=53	=53	=53	=53
4G/	8BB-\L	8dd/L]	8g\L
.	8AA\J	8cc#X/	8e\J
4Fn/	4D\	8dd/	4d\
.	.	8b-/J	.
4E/	2C#X\	4a/	8e\L
.	.	.	8g\
8A/L	.	4r	8f\
8G/J	.	.	8e\J
!!LO:LB:g=original
=54	=54	=54	=54
8F/L	1D\	8r	8d\L
8A/	.	8a/L	8f\J
8G#X/	.	8bn/	4e\
8Gn/J	.	8cc#X/J	.
4F/	.	8dd/L	2a\
.	.	8ee-X/	.
4F#X/	.	8dd/	.
.	.	8ccn/J	.
=55	=55	=55	=55
4G/	1D\	8b-/L	2d\
.	.	16cc/L	.
.	.	16b-/J	.
4F/	.	8a/	.
.	.	[8dd/J	.
4E/	.	8dd/L]	4.g\
.	.	16cc#X/L	.
.	.	16bn/JJ	.
16A/LL	.	4cc#/	.
16B-/	.	.	.
16A/	.	.	16f\LL
16G/JJ	.	.	16e\JJ
*v	*v	*	*
*	*v	*v
=56	=56
!	!LO:TX:b:t=Fine.
1F/ 1AA/ 1DD/	1dd/ 1a/ 1d/
==	==
*-	*-
!!!system-decoration: [(s1,s2)]
!!!RDF**kern: > = above
!!!RDF**kern: < = below
!!!EED: Leszek Kubiak
!!!EST: 2021-05-25
!!!ENC: Berenika Jozajtis
!!!END: 2021-05-08
